X: 4
T: Return From Fingal
R: hornpipe
M: 4/4
L: 1/8
K: Edor
B/A/G/F/ E/F/G/A/|B/A/G/F/ EE|A/G/F/A/ dA|BA B/c/d|
B/A/G/F/ E/F/G/A/|B/A/G/F/ EE|A/G/F/A/ dA|FE E2:|
!|:fe ed/c/|BA d>A|BA dA|BA B/c/d/e/|
fe ed/c/|BA d>A|B/A/F/A/ dA|FE E2:|


Tune 851	Setting 14018

